assets/icons/outline/code-preserve-case.svg

<svg width="24" height="24" viewBox="0 0 24 24" fill="none" xmlns="http://www.w3.org/2000/svg">
<path d="M14.741 17.5407C14.4157 17.5407 14.1644 17.4569 13.987 17.2894C13.8195 17.1119 13.7357 16.8606 13.7357 16.5354V8.12334C13.7357 7.79809 13.8195 7.55169 13.987 7.38414C14.1644 7.20674 14.4157 7.11803 14.741 7.11803H18.2891C19.0185 7.11803 19.6394 7.22645 20.1519 7.44328C20.6644 7.66011 21.0537 7.97057 21.3198 8.37466C21.5958 8.77876 21.7338 9.2617 21.7338 9.82349C21.7338 10.4543 21.5514 10.9865 21.1868 11.4201C20.8221 11.8538 20.3244 12.1446 19.6936 12.2924V12.0706C20.4229 12.1791 20.9896 12.455 21.3937 12.8985C21.7978 13.3421 21.9999 13.9186 21.9999 14.6283C21.9999 15.5547 21.6845 16.2742 21.0537 16.7867C20.4328 17.2894 19.5655 17.5407 18.4517 17.5407H14.741ZM15.5541 16.1066H18.2152C18.8854 16.1066 19.3782 15.9785 19.6936 15.7223C20.009 15.4562 20.1667 15.0619 20.1667 14.5395C20.1667 14.0073 20.009 13.6131 19.6936 13.3568C19.3782 13.1006 18.8854 12.9725 18.2152 12.9725H15.5541V16.1066ZM15.5541 11.5384H17.9639C18.6144 11.5384 19.0973 11.4152 19.4127 11.1688C19.7379 10.9126 19.9006 10.538 19.9006 10.0452C19.9006 9.55245 19.7379 9.18285 19.4127 8.93645C19.0973 8.6802 18.6144 8.55207 17.9639 8.55207H15.5541V11.5384Z" fill="#282828"/>
<path d="M2.83813 17.6592C2.60159 17.6592 2.4094 17.605 2.26156 17.4966C2.12358 17.3882 2.0398 17.2452 2.01024 17.0678C1.98067 16.8806 2.01516 16.6736 2.11372 16.4469L6.01667 7.79833C6.1448 7.51251 6.29757 7.31046 6.47497 7.19219C6.66223 7.06406 6.87414 7 7.11068 7C7.33737 7 7.53941 7.06406 7.71682 7.19219C7.90408 7.31046 8.06178 7.51251 8.1899 7.79833L12.1076 16.4469C12.2161 16.6736 12.2555 16.8806 12.2259 17.0678C12.1963 17.2551 12.1126 17.4029 11.9746 17.5114C11.8366 17.6099 11.6543 17.6592 11.4276 17.6592C11.1516 17.6592 10.9348 17.5951 10.7771 17.467C10.6292 17.329 10.4962 17.122 10.3779 16.8461L9.41697 14.6137L10.2153 15.1311H3.97649L4.77482 14.6137L3.82865 16.8461C3.70053 17.1319 3.56747 17.3389 3.42949 17.467C3.29151 17.5951 3.09439 17.6592 2.83813 17.6592ZM7.08111 9.17323L5.01137 14.0963L4.62698 13.6232H9.56481L9.19521 14.0963L7.11068 9.17323H7.08111Z" fill="#282828"/>
</svg>

<svg xmlns="http://www.w3.org/2000/svg" width="24" height="24" fill="none" viewBox="0 0 24 24"><path fill="#282828" d="M14.741 17.54q-.488 0-.754-.25-.252-.267-.251-.755V8.123q0-.487.251-.739.266-.266.754-.266h3.548q1.094 0 1.863.325.769.326 1.168.932.414.606.414 1.448 0 .946-.547 1.597-.548.651-1.493.872v-.221q1.094.162 1.7.828t.606 1.73q0 1.389-.946 2.158-.931.753-2.602.754zm.813-1.433h2.661q1.005 0 1.479-.385.473-.399.473-1.182 0-.8-.473-1.183-.474-.384-1.479-.384h-2.66zm0-4.569h2.41q.975 0 1.449-.37.488-.383.488-1.123 0-.739-.488-1.109-.474-.384-1.45-.384h-2.409zM2.838 17.66q-.355 0-.576-.163a.67.67 0 0 1-.252-.43q-.045-.28.104-.62l3.903-8.649q.192-.428.458-.606A1.1 1.1 0 0 1 7.111 7q.339 0 .606.192.28.177.473.606l3.918 8.649q.162.34.118.62a.68.68 0 0 1-.251.444q-.207.148-.547.148-.414 0-.65-.192-.223-.207-.4-.62l-.961-2.233.798.517H3.976l.799-.517-.946 2.232q-.192.429-.4.621-.207.192-.59.192m4.243-8.487-2.07 4.923-.384-.473h4.938l-.37.473-2.084-4.923z"/></svg>
